X: 1
T: St. Kilda Wedding
R: reel
M: 4/4
L: 1/8
K: Amaj
|:A2 Ac Acec|B2 cA F2 EF|A2 cB Acec|1 f2 fe fefa:|2 f2 fe fefg||
a2 ab aeea|fgag f2 ed|cefg agfa|ecac BdcB|
Aaag aeea|fgag f2 ed|cefg agfa|ecac BdcB||


Tune 1606	Setting 15017

